packages/icons/svg/Fill/eye.svg

<svg fill="none" height="24" viewBox="0 0 24 24" width="24" xmlns="http://www.w3.org/2000/svg"><path clip-rule="evenodd" d="m12 10.4999c-.827 0-1.5.673-1.5 1.5s.673 1.5 1.5 1.5 1.5-.673 1.5-1.5-.673-1.5-1.5-1.5zm0 4.9999c-1.93 0-3.49995-1.57-3.49995-3.5s1.56995-3.49998 3.49995-3.49998 3.5 1.56998 3.5 3.49998-1.57 3.5-3.5 3.5zm9.868-3.9979c-.639-1.112-4.162-6.68601-10.139-6.49901-5.52697.141-8.74297 5.01101-9.59697 6.49901-.176.309-.176.687 0 .996.63 1.097 4.03 6.502 9.89297 6.502.081 0 .163-.001.246-.003 5.527-.141 8.743-5.011 9.597-6.499.176-.309.176-.687 0-.996z" fill="#6b7280" fill-rule="evenodd"/></svg>

<svg width="24" height="24" viewBox="0 0 24 24" fill="none" xmlns="http://www.w3.org/2000/svg">
<g id="Icon/Fill/eye">
<path id="Mask" fill-rule="evenodd" clip-rule="evenodd" d="M12 10.5C11.173 10.5 10.5 11.173 10.5 12C10.5 12.827 11.173 13.5 12 13.5C12.827 13.5 13.5 12.827 13.5 12C13.5 11.173 12.827 10.5 12 10.5ZM12 15.5C10.07 15.5 8.5 13.93 8.5 12C8.5 10.07 10.07 8.50001 12 8.50001C13.93 8.50001 15.5 10.07 15.5 12C15.5 13.93 13.93 15.5 12 15.5ZM21.868 11.502C21.229 10.39 17.706 4.81601 11.729 5.00301C6.202 5.14401 2.986 10.014 2.132 11.502C1.956 11.811 1.956 12.189 2.132 12.498C2.762 13.595 6.162 19 12.025 19C12.106 19 12.188 18.999 12.271 18.997C17.798 18.856 21.014 13.986 21.868 12.498C22.044 12.189 22.044 11.811 21.868 11.502Z" fill="#000000"/>
</g>
</svg>
